packages/icons/raw/imported/ControlsClear.svg

<svg width="32" height="32" viewBox="0 0 32 32" fill="none" xmlns="http://www.w3.org/2000/svg">
<mask id="path-1-inside-1_2541:523" fill="white">
<path fill-rule="evenodd" clip-rule="evenodd" d="M24.0082 8H13.5585C12.7748 8 11.9911 8.3 11.3641 8.8L11.2073 8.95L4.72854 14.9C4.41505 15.2 4.2583 15.6 4.2583 16C4.2583 16.4 4.41505 16.8 4.72854 17.1L11.2073 23.05L11.3641 23.2C11.9911 23.75 12.7748 24 13.5585 24H23.956C25.7847 24 27.2476 22.6 27.2476 20.85V11.15C27.2999 9.4 25.8369 8 24.0082 8Z"/>
</mask>
<path d="M15.2707 12.6385C15.071 12.4477 14.7545 12.4549 14.5638 12.6546C14.373 12.8543 14.3802 13.1708 14.5799 13.3615L15.2707 12.6385ZM20.5011 19.0184C20.7008 19.2091 21.0173 19.2019 21.208 19.0022C21.3988 18.8026 21.3915 18.4861 21.1919 18.2953L20.5011 19.0184ZM14.5799 18.2953C14.3802 18.4861 14.373 18.8026 14.5638 19.0023C14.7545 19.2019 15.071 19.2091 15.2707 19.0184L14.5799 18.2953ZM21.1919 13.3615C21.3915 13.1708 21.3988 12.8543 21.208 12.6546C21.0173 12.4549 20.7008 12.4477 20.5011 12.6385L21.1919 13.3615ZM14.5799 13.3615L20.5011 19.0184L21.1919 18.2953L15.2707 12.6385L14.5799 13.3615ZM15.2707 19.0184L21.1919 13.3615L20.5011 12.6385L14.5799 18.2953L15.2707 19.0184ZM11.3641 8.8L10.7406 8.01817L10.7053 8.04631L10.6727 8.07752L11.3641 8.8ZM11.2073 8.95L11.8838 9.68653L11.8913 9.67958L11.8987 9.67248L11.2073 8.95ZM4.72854 14.9L4.05213 14.1635L4.04456 14.1704L4.03715 14.1775L4.72854 14.9ZM4.72854 17.1L4.03715 17.8225L4.04456 17.8296L4.05213 17.8365L4.72854 17.1ZM11.2073 23.05L11.8987 22.3275L11.8913 22.3204L11.8838 22.3135L11.2073 23.05ZM11.3641 23.2L10.6727 23.9225L10.6883 23.9375L10.7046 23.9517L11.3641 23.2ZM27.2476 11.15L26.2481 11.1202L26.2476 11.1351V11.15H27.2476ZM13.5585 7C12.5245 7 11.5252 7.39245 10.7406 8.01817L11.9876 9.58183C12.4569 9.20755 13.0251 9 13.5585 9V7ZM10.6727 8.07752L10.5159 8.22752L11.8987 9.67248L12.0555 9.52248L10.6727 8.07752ZM10.5309 8.21347L4.05213 14.1635L5.40495 15.6365L11.8838 9.68653L10.5309 8.21347ZM4.03715 14.1775C3.51846 14.6739 3.2583 15.3385 3.2583 16H5.2583C5.2583 15.8615 5.31163 15.7261 5.41993 15.6225L4.03715 14.1775ZM3.2583 16C3.2583 16.6615 3.51846 17.3261 4.03715 17.8225L5.41993 16.3775C5.31163 16.2739 5.2583 16.1385 5.2583 16H3.2583ZM4.05213 17.8365L10.5309 23.7865L11.8838 22.3135L5.40495 16.3635L4.05213 17.8365ZM10.516 23.7725L10.6727 23.9225L12.0555 22.4775L11.8987 22.3275L10.516 23.7725ZM10.7046 23.9517C11.536 24.681 12.563 25 13.5585 25V23C12.9866 23 12.4462 22.819 12.0235 22.4483L10.7046 23.9517ZM23.956 25C26.295 25 28.2476 23.1933 28.2476 20.85H26.2476C26.2476 22.0067 25.2743 23 23.956 23V25ZM28.2476 20.85V11.15H26.2476V20.85H28.2476ZM28.2472 11.1798C28.318 8.80698 26.3399 7 24.0082 7V9C25.3339 9 26.2817 9.99302 26.2481 11.1202L28.2472 11.1798ZM24.0082 7H13.5585V9H24.0082V7ZM13.5585 25H23.956V23H13.5585V25Z" fill="black" mask="url(#path-1-inside-1_2541:523)"/>
</svg>

<svg width="32" height="32" fill="none" xmlns="http://www.w3.org/2000/svg"><mask id="a" fill="#fff"><path fill-rule="evenodd" clip-rule="evenodd" d="M24.008 8h-10.45c-.783 0-1.567.3-2.194.8l-.157.15L4.73 14.9c-.314.3-.47.7-.47 1.1 0 .4.156.8.47 1.1l6.478 5.95.157.15c.627.55 1.41.8 2.194.8h10.398c1.829 0 3.292-1.4 3.292-3.15v-9.7C27.3 9.4 25.837 8 24.008 8Z"/></mask><path d="M15.27 12.639a.5.5 0 1 0-.69.723l.69-.723Zm5.231 6.38a.5.5 0 0 0 .69-.724l-.69.723Zm-5.921-.724a.5.5 0 0 0 .69.723l-.69-.723Zm6.612-4.934a.5.5 0 0 0-.69-.723l.69.723Zm-6.612 0 5.921 5.657.69-.723-5.92-5.657-.691.723Zm.69 5.657 5.922-5.657-.69-.723-5.922 5.657.69.723ZM11.365 8.8l-.623-.782-.036.028-.032.032.691.722Zm-.157.15.677.737.007-.007.008-.008-.692-.722ZM4.73 14.9l-.677-.736-.007.006-.008.008.692.722Zm0 2.2-.692.723.008.007.007.007.677-.737Zm6.478 5.95.692-.723-.008-.007-.007-.006-.677.736Zm.157.15-.691.723.015.015.017.014.66-.752Zm15.884-12.05-1-.03v.03h1ZM13.558 7c-1.034 0-2.033.392-2.817 1.018l1.247 1.564c.469-.374 1.037-.582 1.57-.582V7Zm-2.885 1.078-.157.15 1.383 1.444.157-.15-1.383-1.444Zm-.142.135-6.479 5.95 1.353 1.473 6.479-5.95-1.353-1.473Zm-6.494 5.965A2.517 2.517 0 0 0 3.258 16h2c0-.139.054-.274.162-.377l-1.383-1.445ZM3.258 16c0 .662.26 1.326.78 1.823l1.382-1.445A.517.517 0 0 1 5.258 16h-2Zm.794 1.837 6.479 5.95 1.353-1.473-6.479-5.95-1.353 1.473Zm6.464 5.936.157.15 1.383-1.445-.157-.15-1.383 1.445Zm.189.179c.831.729 1.858 1.048 2.854 1.048v-2c-.572 0-1.113-.181-1.535-.552l-1.32 1.504ZM23.956 25c2.339 0 4.292-1.807 4.292-4.15h-2c0 1.157-.974 2.15-2.292 2.15v2Zm4.292-4.15v-9.7h-2v9.7h2Zm0-9.67C28.317 8.807 26.34 7 24.007 7v2c1.326 0 2.274.993 2.24 2.12l2 .06ZM24.007 7h-10.45v2h10.45V7Zm-10.45 18h10.398v-2H13.559v2Z" fill="#000" mask="url(#a)"/></svg>
